X:1
T:Title
%%score { ( 1 3 ) | ( 2 4 ) }
L:1/8
M:4/4
K:D
V:1 treble nm="Grand Piano"
V:3 treble 
V:2 bass 
V:4 bass 
V:1
 z4 z2[Q:1/4=100] [FA]2 | [FA]3 [EG] [DF]2 [Fd]2 | [Gc]3 [GB] [FA]2 D2 | E2 F2 G2 [EG]2 | %4
[M:3/4] e4 z2 |[M:1/4] [A,EA]2 |[M:4/4] [^A,EG]3 [A,EF] [B,DF]2 [DB]2 | [Fd]3 [Ec] [DB]2 A2 | %8
 A2 ^G2 c3 B |[M:3/4] [CA]6 |[M:1/4] A z |[M:4/4] F2 F2 F F3 | z4 z2 .E2 | G2 G2 c3 B |[M:3/4] A6 | %15
[M:1/4] B z |[M:4/4] z2 .c2 z4 |[M:9/8] z2 F z3 z3 |[M:4/4] z2 .A2 z4 |[M:3/4] D6 |] %20
V:2
 z4 z2 [D,A,]2 | [D,A,]3 [D,A,] [D,A,]2 [D,A,]2 | [D,B,]3 [D,C] [D,D]2 [F,A,]2 | %3
 [G,B,D]2 [F,B,D]2 [E,B,D]2 [D,^A,]2 |[M:3/4] z2 z2[K:treble] c2 |[M:1/4][K:bass] C,2 | %6
[M:4/4] C,3 C, B,,2 [B,,F,]2 | [F,^A,]3 [F,A,] [B,,B,]2 [=F,B,D]2 | %8
 [E,B,D]2 [E,B,D]2 [E,^G,E]3 [E,G,D] |[M:3/4] [A,,A,]6 |[M:1/4] [A,,A,]2 | %11
[M:4/4] [D,A,D]2 [D,A,D]2 [^D,A,=C] [D,A,C]3 | E,2 A,,2 E,2 A,,2 | %13
 [E,A,C]2 [E,A,C]2 [=F,^G,D]3 [F,G,D] |[M:3/4] [F,A,D]4 [E,G,]2 |[M:1/4] [A,,G,]2 | %16
[M:4/4] [B,,F,]2 [A,,F,][G,,G,] [D,F,D]2 [C,F,]2 |[M:9/8] .[B,,F,]3 A E,2- E, G,,2 | %18
[M:4/4] A,,2 [A,,F,]2 [A,,E,]2 [A,,G,A,]2 |[M:3/4] [D,F,A,]6 |] %20
V:3
 x8 | x8 | x8 | x8 |[M:3/4] G6 |[M:1/4] x2 |[M:4/4] x8 | x8 | x8 |[M:3/4] x6 |[M:1/4] C-[CG] | %11
[M:4/4] x8 | [A,CG]6 [A,C]-[A,CF] | x8 |[M:3/4] z2 z2 C2 |[M:1/4] C-[CA] | %16
[M:4/4] [Dd]2 D-[DB] A2 [E^A]2 |[M:9/8] [^DB]2 [B,D]- [B,D] [B,EG]2- [B,EG] [B,=DE]2 | %18
[M:4/4] [A,DF]2 D-[DB] [CA]2 C2 |[M:3/4] x6 |] %20
V:4
 x8 | x8 | x8 | x8 |[M:3/4] [C,A,]6[K:treble] |[M:1/4][K:bass] x2 |[M:4/4] x8 | x8 | x8 | %9
[M:3/4] x6 |[M:1/4] x2 |[M:4/4] x8 | x8 | x8 |[M:3/4] x6 |[M:1/4] x2 |[M:4/4] x8 | %17
[M:9/8] z2 B,,- B,, z z z3 |[M:4/4] x8 |[M:3/4] x6 |] %20

